be-fit-web-app/src/assets/icons/cardiovascular system.svg

<svg width="65" height="65" viewBox="0 0 65 65" fill="none" xmlns="http://www.w3.org/2000/svg">
<g clip-path="url(#clip0_73_3)">
<path d="M16.7 44.8C9.09999 41.6 4.29998 36.8 2.49998 30.5C-1.10002 18.1 8.19999 4.5 8.59999 4L11.6 6.1C11.5 6.2 2.89998 18.8 5.99998 29.5C7.49998 34.7 11.6 38.7 18.1 41.4L16.7 44.8Z" fill="#1677FF"/>
<path d="M10.1001 9.5C12.5854 9.5 14.6001 7.48528 14.6001 5C14.6001 2.51472 12.5854 0.5 10.1001 0.5C7.61482 0.5 5.6001 2.51472 5.6001 5C5.6001 7.48528 7.61482 9.5 10.1001 9.5Z" fill="#808080"/>
<path d="M53.3001 16.5L50.0001 31L38.1001 30.2L45.7001 16.5H53.3001Z" fill="#808080"/>
<path d="M52.6 19.6L53.3 16.5H45.7L44 19.6H52.6Z" fill="#1B1B1B"/>
<path d="M6.4 58H58.2C58.2 58 73.1 33.5 44.6 28.6C22.5 24.8 -4.3 49 6.4 58Z" fill="#1B1B1B"/>
<path d="M58 58H7C3.4 58 0.5 60.9 0.5 64.5H64.5C64.5 60.9 61.6 58 58 58Z" fill="#1677FF"/>
<path d="M7 59.4H58C61.1 59.4 63.7 61.6 64.3 64.5H64.5C64.5 60.9 61.6 58 58 58H7C3.4 58 0.5 60.9 0.5 64.5H0.7C1.3 61.6 3.9 59.4 7 59.4Z" fill="#1B1B1B"/>
<path d="M55.5001 9.5H42.1001C39.9001 9.5 38.1001 11.3 38.1001 13.5C38.1001 15.7 39.9001 17.5 42.1001 17.5H55.5001C57.7001 17.5 59.5001 15.7 59.5001 13.5C59.4001 11.3 57.7001 9.5 55.5001 9.5Z" fill="#1B1B1B"/>
<path d="M42.1001 10.6H55.5001C57.5001 10.6 59.1001 12.1 59.4001 14C59.4001 13.8 59.5001 13.6 59.5001 13.4C59.5001 11.2 57.7001 9.4 55.5001 9.4H42.1001C39.9001 9.4 38.1001 11.2 38.1001 13.4C38.1001 13.6 38.1001 13.8 38.2001 14C38.4001 12.1 40.1001 10.6 42.1001 10.6Z" fill="#1677FF"/>
<path d="M26.8 53.1C30.9422 53.1 34.3 49.7421 34.3 45.6C34.3 41.4579 30.9422 38.1 26.8 38.1C22.6579 38.1 19.3 41.4579 19.3 45.6C19.3 49.7421 22.6579 53.1 26.8 53.1Z" fill="#1677FF"/>
<path d="M26.8001 49.8C29.1197 49.8 31.0001 47.9196 31.0001 45.6C31.0001 43.2804 29.1197 41.4 26.8001 41.4C24.4805 41.4 22.6001 43.2804 22.6001 45.6C22.6001 47.9196 24.4805 49.8 26.8001 49.8Z" fill="#808080"/>
</g>
<defs>
<clipPath id="clip0_73_3">
<rect width="65" height="65" fill="white"/>
</clipPath>
</defs>
</svg>

<svg xmlns="http://www.w3.org/2000/svg" enable-background="new 0 0 65 65" viewBox="0 0 65 65"><path fill="#1677ff" d="M16.7,44.8c-7.6-3.2-12.4-8-14.2-14.3C-1.1,18.1,8.2,4.5,8.6,4l3,2.1C11.5,6.2,2.9,18.8,6,29.5    c1.5,5.2,5.6,9.2,12.1,11.9L16.7,44.8z" class="color788d9a svgShape"/><circle cx="10.1" cy="5" r="4.5" fill="#585858" class="color445c6c svgShape"/><polygon fill="#585858" points="53.3 16.5 50 31 38.1 30.2 45.7 16.5" class="color445c6c svgShape"/><polygon fill="#1b1b1b" points="52.6 19.6 53.3 16.5 45.7 16.5 44 19.6" class="color324854 svgShape"/><path fill="#dbdde0" d="M6.4,58h51.8c0,0,14.9-24.5-13.6-29.4C22.5,24.8-4.3,49,6.4,58z" class="colordbdfe0 svgShape"/><path fill="#1677ff" d="M58,58H7c-3.6,0-6.5,2.9-6.5,6.5h64C64.5,60.9,61.6,58,58,58z" class="color788d9a svgShape"/><path fill="#949faf" d="M7,59.4h51c3.1,0,5.7,2.2,6.3,5.1h0.2c0-3.6-2.9-6.5-6.5-6.5H7c-3.6,0-6.5,2.9-6.5,6.5h0.2   C1.3,61.6,3.9,59.4,7,59.4z" class="color94a6af svgShape"/><path fill="#aeaeae" d="M55.5,9.5H42.1c-2.2,0-4,1.8-4,4c0,2.2,1.8,4,4,4h13.4c2.2,0,4-1.8,4-4C59.4,11.3,57.7,9.5,55.5,9.5z" class="colorf1786b svgShape"/><path fill="#8dbcff" d="M42.1,10.6h13.4c2,0,3.6,1.5,3.9,3.4c0-0.2,0.1-0.4,0.1-0.6c0-2.2-1.8-4-4-4H42.1c-2.2,0-4,1.8-4,4   c0,0.2,0,0.4,0.1,0.6C38.4,12.1,40.1,10.6,42.1,10.6z" class="colorff958d svgShape"/><circle cx="26.8" cy="45.6" r="7.5" fill="#1677ff" class="color788d9a svgShape"/><circle cx="26.8" cy="45.6" r="4.2" fill="#eff1f5" class="coloreff3f5 svgShape"/></svg>
